X:1
T:Away in a Manger
T:Away in a Manger
T:String Duet
T:arr. Tydon Bullard
C:arr. Tydon Bullard
%%score 1 2 { 3 | ( 4 5 ) }
L:1/8
Q:1/4=80
M:3/4
K:C
V:1 treble nm="Violin" snm="Vln."
V:2 bass nm="Violoncello" snm="Vc."
V:3 treble nm="Piano" snm="Pno."
V:4 bass 
V:5 bass 
V:1
 z6 | z6 | z6 | z6 | z6 | z6 | z6 | z6 | z6 | z6 | z6 |!pp! G6 | B6 | d6 | a6 |!p! g3 f e2 | %16
 e2 d2 c2 | c2 B2 A2 | G4 G2 | A3 G F2 | G2 F2 E2 | F2 D2 CD | E6 | z6 | z6 | z6 | z6 | z6 | z6 | %29
!mp! G6 | c2 c2 de | c2 c2 ef | g2 g2 a2 | f4 de | f2 f2 g2 | e2 e2 ce | d2 G2 c2 | B4 G2 | %38
 c2 c2 de | c2 c2 ef | g2 g2 a2 | f4 de | f2 f2 g2 | e2 e2 ce | d2 A2 B2 | c6 | z6 | z6 | z6 | z6 | %50
 z6 | z6 | z6 |[M:4/4] B2 d2 a4 |[M:3/4]!mf! e4- ef | g4- ge/g/ | a6 |!>(! b2 a2 g2!>)! | %58
!p! e2 d2 B2 | G2 G,2 G,2 | B,2 D2 G2 |!<(! B2 f2 b2!<)! |!mf! c'3 c' c'2 | c'2 d'2 e'2 | %64
 e'2 d'2 c'2 |!>(! b4 c'2!>)! |!p! d'3 d' d'2 | e'2 e'2 e'2 | d'2 c'2 b2 | c'6 | z6 | z6 | z6 | %73
 z4!mp! G2 | c2 c2 de | c2 c2 ef | [Ag]2 [Ag]2 [Aa]2 | [Af]4 de | f2 f2 g2 | e2 e2 ce | d2 A2 c2 | %81
 B6 | c6 |!<(! d6!<)! ||[K:G]!ff! g2 g2 ab | g2 g2 bc' | d'2 d'2 e'2 | c'4 ab | %88
[M:4/4] c'2 c'4 c'd' | b2 b4 gb |!>(! a4 e4!>)! | f4!p! g4- | g8 |] %93
V:2
 z6 | z6 | z6 | z6 | z6 | z6 |!mp! G,6 | G,3 F, E,2 | E,2 D,2 C,2 | C,2 B,,2 A,,2 | G,,4 G,,2 | %11
 G,,3 A,, G,,2 | G,,2 D,2 B,,2 | A,,2 G,,2 C,2 | E,4 G,2 | G,3 F, E,2 | E,2 D,2 C,2 | %17
 C,2 B,,2 A,,2 | G,,4 G,,2 | F,3 E, D,2 | E,2 D,2 C,2 | D,2 A,,2 B,,2 | C,6 | z6 | z6 | z6 | z6 | %27
 z6 | z6 | z6 | z6 | z6 | z6 | z6 |!pp! D6 | C6 | G,6- | G,6 |!p! C2 G2 F2 | E2 E2 ED | C2 C2 CB, | %41
 D2 A,2 A,2 | A,2 A,2 B,2 | G,2 G,2 B,2 | B,2 C2 D2 | E6 | z6 | z6 | z6 | z6 | z6 | z6 | z6 | %53
[M:4/4] G,2 B,2 D4 |[M:3/4]!f! G3 F E2 | E2 D2 C2 | C2 B,2 A,2 |!>(! G,4 G,2!>)! |!mp! G,3 A, G,2 | %59
 G,2 D2 B,2 | A,2 G,2 C2 |!<(! E4 G2!<)! |!f! G3 F E2 | E2 D2 C2 | C2 B,2 A,2 |!>(! G,4 G,2!>)! | %66
!mp! F3 E D2 | E2 D2 C2 | D2 A,2 B,2 | C6 | z6 | z6 | z6 | z6 |!p! E2 E2 FG | E2 E2 ED | C2 C2 C2 | %77
 C2 B,2 A,2 | A,2 A,2 D2 | C2 G,2 G,2 | B,2 C2 D2 | E2 F2 G2 | D2 E2 F2 |!<(! D2 E2 ^F2!<)! || %84
[K:G]!f! G2 D2 G,2 | [G,,D,]4 B,/A,/G,/F,/ | [G,,G,]2 [G,,G,]2 A,B, | CD E4 |[M:4/4] A2 A4 A2 | %89
 G2 G4 G2 |!>(! D4 G4!>)! | A4!pp! B4- | B8 |] %93
V:3
!mp! [DGB]6 | c2 c2 de | c2 c2 cB | A2 A2 GB | c2 c2 de | d2 [GB]4- | [GB]6 | %7
!p! [CE]2 [CE][DF] [EG]2 | [EG]2 [DF]2 [CE]2 | C2 E2 [Ac]2 | [GB]2 [Ge]4 | GA Bc BA | GA Bc dc | %13
 Bc dc de | g2 [ga]2 [gb]2 | [egc']6 | [egc']6 | [eac']6 | (e2 g2 b2) |!mp! [dd']6 | [ee']6 | %21
 [dd']4 [Gg]2 | [EGc]6 | c2 c2 e>d | c2 c2 B>A | A2 E2 F2 | A2 G2 EF | [AB]2 [GB]4 | B2 d2 a2 | %29
 [gb]6 |!p! [ce]2 ba gf | [ce]2 [ce]2 cd | ed cB AG | [FA]2 [FA]2 [EG]2 | (DF Ad- d2) | %35
 (CE Gc- c2) | g2 B2 a2 | [dg]2 [Bg]2 [Gg]2 | (c'b ag fe) | (c'b ag fe) | (ag fe dc) | (de [df]4) | %42
 fg ag f2 | ef gf e2 | de fe d2 | [Gc]6 | cG c2 ce | cG c2 ce | ed c2 BA | BA B2 cd | %50
!<(! BA B2 [ce][df]!<)! |!f! [eg][df] [ce][Bd] [GB]2 | AB cd/e/ e2 |[M:4/4] [Bdg]8 | %54
[M:3/4]!mf! ([ceg]4 GB) | ([ceg]4 GB) | ([Ace]4 GB) |!>(! ([Beg]4 b2)!>)! |!p! [gbd']6 | [dgb]6 | %60
 [Bdg]6 |!<(! [EGB]2 [FAc]2 [GBd]2!<)! |!mf! z2 !>![Gce]2 ed | [EGc]2 [EGc]2 cd | %64
 e/d/c/B/ !>!A3 c |!>(! [Bd]4 [eg]2!>)! |!p! [fa]6 | [gb]6 | [gb]6 | [egc']6 | [ceg]2 [ceg]3 g | %71
 c'2 b2 a2 | [ceg]2 [ceg]3 g | c'2 b2 a2 | [ceg]2 [ceg]3 g | c'2 b2 a2 | [cea]2 [cea]3 g | %77
 (a2 g2 f2) | [dfa]4 [dfa]2 | [egc']4 [egc']2 | ba gf ed | [Bdg]6 | [Adf]6 |!<(! ^f2 g2 a2!<)! || %84
[K:G]!f! !>![gb]2 [gb]2 [ac'][bd'] | [gb]2 [gb]2 b/a/g/f/ | e2 [eg]2 [egb]2 | [fac']2 [fac']4 | %88
[M:4/4] z8 | z8 | z8 | z8 |!p! [Bdg]8 |] %93
V:4
!mp! (G,,2 D,2 G,2) | [CEG]6 | [EG]6 | [CE]6 | [F,A,C]6 | G,2 [G,,D,]4- | [G,,D,]6 |!p! [C,G,]6 | %8
 [C,G,]4 B,,2 | [A,,E,]4 D,2 | [E,G,B,]4 F,2 | G,4 G,2 | [G,D]4 [G,D]2 | [G,B,D]4 [G,B,D]2 | %14
 [G,DE]4 G,,2 | [C,G,]6 | G,6 | [A,,E,]6 | [E,B,]6 |!mp! z6 | z6 | z6 | z2 [C,G,]4 | [CEG]4 G,2 | %24
 [CEG]4 B,2 | [A,CE]4 D,2 | [G,B,D]4 D,2 | [G,B,D]4 D2 | D2 E2 F2 | G6 |!p! C2 E2 C2- | C2 E2 B,2 | %32
 A,4 A,2 | [F,C]4 E,2 | [D,A,]6 | [C,G,]6 | [G,B,]4 [G,C]2- | [G,C]2 [G,B,]4 | [CG]4 [CG]2- | %39
 [CG]4 [B,G]2 | [A,E]4 A,2 | [DA]4 C2 | [F,C]4 [F,C]2 | [G,C]4 [G,C]2 | [G,D]4 [G,D]2 | [CE]6 | %46
!mp! C2 C2 G,2 | C2 C2 B,2 | A,2 A,2 E,2 | G,2 G,2 D,2 |!<(! G,,2 G,,2 F,,2!<)! | %51
!f! E,,2 B,,,2 E,,G,, | A,,2 A,,2 F,,2 |[M:4/4] [G,,D,]8 |[M:3/4]!mf! (C,G, C4) | (C,G, C4) | %56
 (A,,E, C4) | (E,B, E4) | z6 | z6 | z6 |!<(! (E,,2 F,,2 G,,2)!<)! |!mf! z2 !>![C,,G,,]4- | %63
 [C,,G,,]2 [C,G,]2 [B,,G,]2 | z2 !>![A,,E,]4 |!>(! E2 D2 B,2!>)! |!p! D6 | E6 | D6 | C6 | %70
 (C2 B,2 A,2) | G,4 B,2 | (C2 B,2 A,2) | G,4 B,2 | (C2 B,2 A,2) | G,4 B,2 | (A,2 G,2 E,2) | %77
 F,4 E,2 | (D,A, D,A, D,A,) | (C,G, C,G, C,G,) | G,2 B,2 D2 | [G,D]6 | [F,D]6 | %83
!<(! [D,A,]2 E,,2 ^F,,2!<)! ||[K:G]!f! !>![G,,D,]4 [G,,D,]2 | [G,,D,]4 F,,2 | [E,,B,,]4 D,,2 | %87
 [C,,G,,]6 |[M:4/4] z8 | z8 | z8 | z8 |!p! [G,,D,]8 |] %93
V:5
 x6 | x6 | C4 B,2 | A,4 G,2 | x6 | x6 | x6 | x6 | x6 | x6 | x6 | x6 | x6 | x6 | x6 | x6 | %16
 C,4 B,,2 | x6 | x6 | x6 | x6 | x6 | x6 | x6 | x6 | x6 | x6 | x6 | x6 | x6 | x6 | x6 | x6 | x6 | %34
 x6 | x6 | x6 | x6 | x6 | x6 | x6 | x6 | x6 | x6 | x6 | x6 | x6 | x6 | x6 | x6 | x6 | x6 | x6 | %53
[M:4/4] x8 |[M:3/4] x6 | x6 | x6 | x6 | x6 | x6 | x6 | x6 | x6 | x6 | x6 | x6 | x6 | x6 | x6 | x6 | %70
 x6 | x6 | x6 | x6 | x6 | x6 | x6 | x6 | x6 | x6 | x6 | x6 | x6 | x6 ||[K:G] x6 | x6 | x6 | x6 | %88
[M:4/4] x8 | x8 | x8 | x8 | x8 |] %93

